; generated by SuperSlicer 2.4 on 2022-08-17 at 22:50:34 UTC


;
;

;
;
; 

; external perimeters extrusion width = 0.42mm
; perimeters extrusion width = 0.40mm
; infill extrusion width = 0.45mm
; solid infill extrusion width = 0.45mm
; top infill extrusion width = 0.42mm
; first layer extrusion width = 0.40mm

; external perimeters extrusion width = 0.42mm
; perimeters extrusion width = 0.40mm
; infill extrusion width = 0.45mm
; solid infill extrusion width = 0.45mm
; top infill extrusion width = 0.42mm
; first layer extrusion width = 0.40mm

; external perimeters extrusion width = 0.42mm
; perimeters extrusion width = 0.40mm
; infill extrusion width = 0.45mm
; solid infill extrusion width = 0.45mm
; top infill extrusion width = 0.42mm
; first layer extrusion width = 0.40mm

; external perimeters extrusion width = 0.42mm
; perimeters extrusion width = 0.40mm
; infill extrusion width = 0.45mm
; solid infill extrusion width = 0.45mm
; top infill extrusion width = 0.42mm
; first layer extrusion width = 0.40mm

; object:{"name":"测量坑","id":"测量坑.stl id:0 copy 0","object_center":[67.007832,67.003580,0.000000],"boundingbox_center":[67.007832,67.003580,3.000000],"boundingbox_size":[69.984337,69.992165,6.000000]}
; object:{"name":"测量坑","id":"测量坑.stl id:1 copy 0","object_center":[142.992168,67.003580,0.000000],"boundingbox_center":[142.992168,67.003580,3.000000],"boundingbox_size":[69.984337,69.992165,6.000000]}
; object:{"name":"测量坑","id":"测量坑.stl id:2 copy 0","object_center":[67.007832,142.996420,0.000000],"boundingbox_center":[67.007832,142.996420,3.000000],"boundingbox_size":[69.984337,69.992165,6.000000]}
; object:{"name":"测量坑","id":"测量坑.stl id:3 copy 0","object_center":[142.992168,142.996420,0.000000],"boundingbox_center":[142.992168,142.996420,3.000000],"boundingbox_size":[69.984337,69.992165,6.000000]}
; Total objects to print: 4
M486 T4
; plater:{"center":[105.000000,105.000000,0.000000],"boundingbox_center":[105.000000,105.000000,3.000000],"boundingbox_size":[145.968673,145.985005,6.000000]}

M73 P0 R154
;TYPE:Custom
; custom gcode: start_gcode
G90 ; use absolute coordinates
M83 ; extruder relative mode
M204 S1250 T1250
M104 S200 ; set extruder temp
M140 S65 ; set bed temp
G28 ; home all
G1 Y1.0 Z 3F1000 ; move print head up
M190 S65 ; wait for bed temp
M109 S200 ; wait for extruder temp
G92 E0.0
; initial load
G1 Z0.5 E19 F1000
G1 X205.0 E19 F1000
G1 Y1.6
G1 X5.0 E19 F1000
G92 E0.0
; intro line
G1 Y2.0 Z0.2 F1000
G1 X65.0 E9.0 F1000
G1 X105.0 E12.5 F1000
G92 E0.0
; custom gcode end: start_gcode
M107 ; disable fan
G21 ; set units to millimeters
G90 ; use absolute coordinates
M83 ; use relative distances for extrusion
; custom gcode: start_filament_gcode
; Filament gcode
; custom gcode end: start_filament_gcode
;_TOOLCHANGE 0
M107 ; disable fan
;LAYER_CHANGE
;Z:0.25
;HEIGHT:0.25
; custom gcode: before_layer_gcode
;BEFORE_LAYER_CHANGE
G92 E0.0
;0.25
; custom gcode end: before_layer_gcode

G1 E-6 F6000 ; retract
G1 Z0.2 F10800 ; lift Z
G1 Z0.25 ; move to next layer (0)
; custom gcode: layer_gcode
;AFTER_LAYER_CHANGE
;0.25
; custom gcode end: layer_gcode

G1 Z0.45 ; lift Z
M204 S1000 ; adjust acceleration
G1 X40.539 Y40.827 ; move to first Skirt point (minimum acceleration)
G1 Z0.25 ; restore layer Z
G1 E6 F2400 ; unretract
;TYPE:Skirt
;WIDTH:0.52
G1 F1200
G1 X39.021 Y42.457 E0.10798 ; Skirt
G1 X37.603 Y44.175 E0.10798 ; Skirt
G1 X36.215 Y46.085 E0.11445 ; Skirt
G1 X35.019 Y47.965 E0.10798 ; Skirt
G1 X34 Y49.794 E0.1015 ; Skirt
G1 X33.03 Y51.799 E0.10798 ; Skirt
G1 X32.181 Y53.859 E0.10798 ; Skirt
G1 X31.457 Y55.965 E0.10798 ; Skirt
G1 X30.861 Y58.112 E0.10798 ; Skirt
G1 X30.394 Y60.29 E0.10798 ; Skirt
G1 X30.058 Y62.492 E0.10798 ; Skirt
G1 X29.854 Y64.71 E0.10798 ; Skirt
G1 X29.782 Y67.004 E0.11122 ; Skirt
G1 X29.782 Y142.996 E3.68348 ; Skirt
G1 X29.854 Y145.29 E0.11122 ; Skirt
M73 P0 R153
G1 X30.058 Y147.508 E0.10798 ; Skirt
G1 X30.394 Y149.71 E0.10798 ; Skirt
G1 X30.829 Y151.759 E0.1015 ; Skirt
G1 X31.418 Y153.907 E0.10798 ; Skirt
G1 X32.134 Y156.016 E0.10798 ; Skirt
G1 X32.975 Y158.079 E0.10798 ; Skirt
G1 X33.938 Y160.088 E0.10798 ; Skirt
G1 X35.019 Y162.035 E0.10798 ; Skirt
G1 X36.215 Y163.915 E0.10798 ; Skirt
G1 X37.521 Y165.719 E0.10798 ; Skirt
G1 X38.933 Y167.443 E0.10798 ; Skirt
G1 X40.445 Y169.078 E0.10798 ; Skirt
G1 X42.053 Y170.621 E0.10798 ; Skirt
G1 X43.75 Y172.064 E0.10798 ; Skirt
G1 X45.639 Y173.48 E0.11445 ; Skirt
G1 X47.5 Y174.704 E0.10798 ; Skirt
G1 X49.431 Y175.815 E0.10798 ; Skirt
G1 X51.304 Y176.751 E0.1015 ; Skirt
G1 X53.351 Y177.63 E0.10798 ; Skirt
G1 X55.447 Y178.386 E0.10798 ; Skirt
G1 X57.713 Y179.048 E0.11445 ; Skirt
G1 X59.886 Y179.54 E0.10798 ; Skirt
G1 X62.084 Y179.901 E0.10798 ; Skirt
G1 X64.3 Y180.129 E0.10798 ; Skirt
G1 X66.492 Y180.226 E0.10636 ; Skirt
G1 X142.476 Y180.226 E3.68307 ; Skirt
G1 X144.604 Y180.194 E0.10312 ; Skirt
G1 X146.825 Y180.032 E0.10798 ; Skirt
G1 X149.165 Y179.715 E0.11445 ; Skirt
G1 X151.35 Y179.28 E0.10798 ; Skirt
G1 X153.505 Y178.716 E0.10798 ; Skirt
G1 X155.622 Y178.024 E0.10798 ; Skirt
G1 X157.695 Y177.206 E0.10798 ; Skirt
G1 X159.714 Y176.266 E0.10798 ; Skirt
G1 X161.674 Y175.207 E0.10798 ; Skirt
G1 X163.567 Y174.033 E0.10798 ; Skirt
G1 X165.386 Y172.747 E0.10798 ; Skirt
G1 X167.125 Y171.355 E0.10798 ; Skirt
G1 X168.778 Y169.861 E0.10798 ; Skirt
G1 X170.339 Y168.272 E0.10798 ; Skirt
G1 X171.801 Y166.592 E0.10798 ; Skirt
G1 X173.161 Y164.827 E0.10798 ; Skirt
G1 X174.34 Y163.097 E0.1015 ; Skirt
G1 X175.486 Y161.186 E0.10798 ; Skirt
G1 X176.516 Y159.211 E0.10798 ; Skirt
G1 X177.426 Y157.178 E0.10798 ; Skirt
G1 X178.255 Y154.967 E0.11445 ; Skirt
G1 X178.908 Y152.837 E0.10798 ; Skirt
G1 X179.432 Y150.672 E0.10798 ; Skirt
G1 X179.806 Y148.612 E0.1015 ; Skirt
G1 X180.076 Y146.4 E0.10798 ; Skirt
G1 X180.214 Y144.177 E0.10798 ; Skirt
G1 X180.218 Y65.957 E3.79146 ; Skirt
G1 X180.076 Y63.6 E0.11445 ; Skirt
G1 X179.806 Y61.388 E0.10798 ; Skirt
G1 X179.405 Y59.197 E0.10798 ; Skirt
G1 X178.873 Y57.034 E0.10798 ; Skirt
G1 X178.255 Y55.033 E0.1015 ; Skirt
G1 X177.426 Y52.822 E0.11445 ; Skirt
G1 X176.516 Y50.789 E0.10798 ; Skirt
G1 X175.551 Y48.93 E0.1015 ; Skirt
G1 X174.412 Y47.016 E0.10798 ; Skirt
G1 X173.161 Y45.173 E0.10798 ; Skirt
G1 X171.716 Y43.305 E0.11445 ; Skirt
G1 X170.339 Y41.728 E0.1015 ; Skirt
G1 X168.778 Y40.139 E0.10798 ; Skirt
G1 X167.023 Y38.559 E0.11445 ; Skirt
G1 X165.279 Y37.173 E0.10798 ; Skirt
G1 X163.455 Y35.894 E0.10798 ; Skirt
G1 X161.674 Y34.793 E0.1015 ; Skirt
G1 X159.595 Y33.674 E0.11445 ; Skirt
G1 X157.572 Y32.741 E0.10798 ; Skirt
G1 X155.622 Y31.976 E0.1015 ; Skirt
G1 X153.377 Y31.247 E0.11445 ; Skirt
G1 X151.22 Y30.69 E0.10798 ; Skirt
G1 X149.165 Y30.285 E0.1015 ; Skirt
G1 X146.825 Y29.968 E0.11445 ; Skirt
G1 X144.604 Y29.806 E0.10798 ; Skirt
G1 X142.51 Y29.775 E0.1015 ; Skirt
G1 X66.492 Y29.774 E3.68469 ; Skirt
G1 X64.167 Y29.881 E0.11283 ; Skirt
G1 X61.952 Y30.117 E0.10798 ; Skirt
G1 X59.886 Y30.46 E0.1015 ; Skirt
G1 X57.713 Y30.952 E0.10798 ; Skirt
G1 X55.574 Y31.573 E0.10798 ; Skirt
G1 X53.475 Y32.321 E0.10798 ; Skirt
G1 X51.304 Y33.249 E0.11445 ; Skirt
G1 X49.314 Y34.249 E0.10798 ; Skirt
G1 X47.386 Y35.366 E0.10798 ; Skirt
G1 X45.53 Y36.597 E0.10798 ; Skirt
G1 X43.854 Y37.853 E0.1015 ; Skirt
G1 X42.152 Y39.29 E0.10798 ; Skirt
G1 X40.583 Y40.785 E0.10507 ; Skirt
; printing object 测量坑.stl id:0 copy 0
M486 S0
; acceleration to travel
M204 S1500 ; adjust acceleration
G1 X41.991 Y42.259 F10800 ; move to first Internal perimeter point (acceleration)
; decel to extrusion
M204 S800 ; adjust acceleration
G1 X42.743 Y43.044 ; move to first Internal perimeter point (deceleration)
; end travel
;TYPE:Internal perimeter
;WIDTH:0.4
G1 F1200
G1 X44.194 Y41.657 E0.07226 ; Internal perimeter
G1 X45.75 Y40.338 E0.07346 ; Internal perimeter
G1 X47.383 Y39.114 E0.07346 ; Internal perimeter
G1 X49.086 Y37.99 E0.07346 ; Internal perimeter
G1 X50.853 Y36.969 E0.07346 ; Internal perimeter
G1 X52.679 Y36.056 E0.07346 ; Internal perimeter
G1 X54.555 Y35.254 E0.07346 ; Internal perimeter
G1 X56.476 Y34.566 E0.07346 ; Internal perimeter
G1 X58.435 Y33.994 E0.07346 ; Internal perimeter
G1 X60.424 Y33.54 E0.07346 ; Internal perimeter
G1 X62.437 Y33.205 E0.07346 ; Internal perimeter
G1 X64.467 Y32.992 E0.07346 ; Internal perimeter
G1 X66.505 Y32.9 E0.07346 ; Internal perimeter
G1 X67.464 Y32.915 E0.03453 ; Internal perimeter
G1 X68.546 Y32.931 E0.03893 ; Internal perimeter
G1 X70.581 Y33.084 E0.07346 ; Internal perimeter
G1 X72.603 Y33.357 E0.07346 ; Internal perimeter
G1 X74.605 Y33.752 E0.07346 ; Internal perimeter
G1 X76.58 Y34.265 E0.07346 ; Internal perimeter
G1 X78.521 Y34.896 E0.07346 ; Internal perimeter
G1 X80.421 Y35.641 E0.07346 ; Internal perimeter
G1 X82.272 Y36.499 E0.07346 ; Internal perimeter
G1 X84.069 Y37.466 E0.07346 ; Internal perimeter
G1 X85.805 Y38.539 E0.07346 ; Internal perimeter
G1 X87.474 Y39.713 E0.07346 ; Internal perimeter
G1 X89.069 Y40.986 E0.07346 ; Internal perimeter
G1 X90.586 Y42.351 E0.07346 ; Internal perimeter
G1 X92.018 Y43.805 E0.07346 ; Internal perimeter
G1 X93.36 Y45.342 E0.07346 ; Internal perimeter
G1 X94.609 Y46.956 E0.07346 ; Internal perimeter
G1 X95.758 Y48.642 E0.07346 ; Internal perimeter
G1 X96.805 Y50.394 E0.07346 ; Internal perimeter
G1 X97.745 Y52.205 E0.07346 ; Internal perimeter
G1 X98.575 Y54.069 E0.07346 ; Internal perimeter
G1 X99.292 Y55.98 E0.07346 ; Internal perimeter
G1 X99.893 Y57.93 E0.07346 ; Internal perimeter
G1 X100.377 Y59.912 E0.07346 ; Internal perimeter
G1 X100.742 Y61.92 E0.07346 ; Internal perimeter
G1 X100.985 Y63.946 E0.07346 ; Internal perimeter
G1 X101.107 Y65.983 E0.07346 ; Internal perimeter
G1 X101.107 Y68.024 E0.07346 ; Internal perimeter
G1 X100.985 Y70.061 E0.07346 ; Internal perimeter
G1 X100.742 Y72.087 E0.07346 ; Internal perimeter
G1 X100.377 Y74.095 E0.07346 ; Internal perimeter
G1 X99.893 Y76.077 E0.07346 ; Internal perimeter
G1 X99.292 Y78.027 E0.07346 ; Internal perimeter
G1 X98.575 Y79.938 E0.07346 ; Internal perimeter
G1 X97.745 Y81.802 E0.07346 ; Internal perimeter
G1 X96.805 Y83.613 E0.07346 ; Internal perimeter
G1 X95.758 Y85.365 E0.07346 ; Internal perimeter
G1 X94.609 Y87.051 E0.07346 ; Internal perimeter
G1 X93.36 Y88.665 E0.07346 ; Internal perimeter
G1 X92.018 Y90.202 E0.07346 ; Internal perimeter
G1 X90.586 Y91.656 E0.07346 ; Internal perimeter
G1 X89.069 Y93.021 E0.07346 ; Internal perimeter
G1 X87.474 Y94.294 E0.07346 ; Internal perimeter
G1 X85.805 Y95.468 E0.07346 ; Internal perimeter
G1 X84.069 Y96.541 E0.07346 ; Internal perimeter
G1 X82.272 Y97.508 E0.07346 ; Internal perimeter
G1 X80.421 Y98.366 E0.07346 ; Internal perimeter
G1 X78.521 Y99.111 E0.07346 ; Internal perimeter
G1 X76.58 Y99.742 E0.07346 ; Internal perimeter
G1 X74.605 Y100.255 E0.07346 ; Internal perimeter
G1 X72.603 Y100.65 E0.07346 ; Internal perimeter
G1 X70.581 Y100.924 E0.07346 ; Internal perimeter
G1 X68.546 Y101.076 E0.07346 ; Internal perimeter
G1 X66.505 Y101.107 E0.07346 ; Internal perimeter
G1 X64.467 Y101.015 E0.07346 ; Internal perimeter
G1 X62.437 Y100.802 E0.07346 ; Internal perimeter
G1 X60.424 Y100.468 E0.07346 ; Internal perimeter
G1 X58.435 Y100.013 E0.07346 ; Internal perimeter
G1 X56.476 Y99.441 E0.07346 ; Internal perimeter
G1 X54.555 Y98.753 E0.07346 ; Internal perimeter
G1 X52.679 Y97.951 E0.07346 ; Internal perimeter
G1 X50.853 Y97.038 E0.07346 ; Internal perimeter
G1 X49.086 Y96.018 E0.07346 ; Internal perimeter
G1 X47.383 Y94.893 E0.07346 ; Internal perimeter
G1 X45.75 Y93.669 E0.07346 ; Internal perimeter
G1 X44.194 Y92.35 E0.07346 ; Internal perimeter
G1 X42.719 Y90.94 E0.07346 ; Internal perimeter
G1 X41.331 Y89.444 E0.07346 ; Internal perimeter
G1 X40.035 Y87.868 E0.07346 ; Internal perimeter
G1 X38.835 Y86.217 E0.07346 ; Internal perimeter
G1 X37.737 Y84.497 E0.07346 ; Internal perimeter
G1 X36.743 Y82.715 E0.07346 ; Internal perimeter
G1 X35.857 Y80.876 E0.07346 ; Internal perimeter
G1 X35.084 Y78.988 E0.07346 ; Internal perimeter
G1 X34.424 Y77.057 E0.07346 ; Internal perimeter
G1 X33.881 Y75.09 E0.07346 ; Internal perimeter
G1 X33.457 Y73.094 E0.07346 ; Internal perimeter
G1 X33.153 Y71.076 E0.07346 ; Internal perimeter
G1 X32.97 Y69.043 E0.07346 ; Internal perimeter
G1 X32.909 Y67.004 E0.07346 ; Internal perimeter
G1 X32.97 Y64.964 E0.07346 ; Internal perimeter
G1 X33.153 Y62.931 E0.07346 ; Internal perimeter
G1 X33.457 Y60.914 E0.07346 ; Internal perimeter
G1 X33.881 Y58.917 E0.07346 ; Internal perimeter
G1 X34.424 Y56.95 E0.07346 ; Internal perimeter
G1 X35.084 Y55.019 E0.07346 ; Internal perimeter
G1 X35.857 Y53.131 E0.07346 ; Internal perimeter
G1 X36.743 Y51.292 E0.07346 ; Internal perimeter
G1 X37.737 Y49.51 E0.07346 ; Internal perimeter
G1 X38.835 Y47.79 E0.07346 ; Internal perimeter
G1 X40.035 Y46.14 E0.07346 ; Internal perimeter
G1 X41.331 Y44.563 E0.07346 ; Internal perimeter
G1 X42.701 Y43.087 E0.0725 ; Internal perimeter
G1 X42.503 Y42.794 F10800 ; move to first Internal perimeter point (minimum acceleration)
G1 F1200
G1 X43.962 Y41.4 E0.07264 ; Internal perimeter
G1 X45.534 Y40.067 E0.07421 ; Internal perimeter
G1 X47.184 Y38.83 E0.07421 ; Internal perimeter
G1 X48.904 Y37.695 E0.07421 ; Internal perimeter
G1 X50.689 Y36.664 E0.07421 ; Internal perimeter
G1 X52.533 Y35.742 E0.07421 ; Internal perimeter
G1 X54.428 Y34.932 E0.07421 ; Internal perimeter
G1 X56.369 Y34.236 E0.07421 ; Internal perimeter
G1 X58.348 Y33.658 E0.07421 ; Internal perimeter
G1 X60.357 Y33.2 E0.07421 ; Internal perimeter
G1 X62.391 Y32.862 E0.07421 ; Internal perimeter
G1 X64.441 Y32.647 E0.07421 ; Internal perimeter
G1 X66.5 Y32.554 E0.07421 ; Internal perimeter
G1 X67.47 Y32.569 E0.0349 ; Internal perimeter
G1 X68.561 Y32.585 E0.03931 ; Internal perimeter
G1 X70.617 Y32.739 E0.07421 ; Internal perimeter
G1 X72.66 Y33.016 E0.07421 ; Internal perimeter
G1 X74.682 Y33.414 E0.07421 ; Internal perimeter
G1 X76.677 Y33.933 E0.07421 ; Internal perimeter
G1 X78.638 Y34.57 E0.07421 ; Internal perimeter
G1 X80.557 Y35.323 E0.07421 ; Internal perimeter
G1 X82.427 Y36.189 E0.07421 ; Internal perimeter
G1 X84.242 Y37.166 E0.07421 ; Internal perimeter
G1 X85.996 Y38.25 E0.07421 ; Internal perimeter
G1 X87.682 Y39.436 E0.07421 ; Internal perimeter
G1 X89.293 Y40.722 E0.07421 ; Internal perimeter
G1 X90.825 Y42.101 E0.07421 ; Internal perimeter
G1 X92.272 Y43.569 E0.07421 ; Internal perimeter
G1 X93.628 Y45.122 E0.07421 ; Internal perimeter
G1 X94.889 Y46.752 E0.07421 ; Internal perimeter
G1 X96.05 Y48.456 E0.07421 ; Internal perimeter
G1 X97.108 Y50.225 E0.07421 ; Internal perimeter
G1 X98.057 Y52.055 E0.07421 ; Internal perimeter
G1 X98.896 Y53.938 E0.07421 ; Internal perimeter
M73 P1 R153
G1 X99.62 Y55.868 E0.07421 ; Internal perimeter
G1 X100.227 Y57.838 E0.07421 ; Internal perimeter
G1 X100.716 Y59.84 E0.07421 ; Internal perimeter
G1 X101.084 Y61.869 E0.07421 ; Internal perimeter
G1 X101.33 Y63.915 E0.07421 ; Internal perimeter
G1 X101.454 Y65.973 E0.07421 ; Internal perimeter
G1 X101.454 Y68.034 E0.07421 ; Internal perimeter
G1 X101.33 Y70.092 E0.07421 ; Internal perimeter
G1 X101.084 Y72.139 E0.07421 ; Internal perimeter
G1 X100.716 Y74.167 E0.07421 ; Internal perimeter
G1 X100.227 Y76.169 E0.07421 ; Internal perimeter
G1 X99.62 Y78.139 E0.07421 ; Internal perimeter
G1 X98.896 Y80.069 E0.07421 ; Internal perimeter
G1 X98.057 Y81.952 E0.07421 ; Internal perimeter
G1 X97.108 Y83.782 E0.07421 ; Internal perimeter
G1 X96.05 Y85.552 E0.07421 ; Internal perimeter
G1 X94.889 Y87.255 E0.07421 ; Internal perimeter
G1 X93.628 Y88.885 E0.07421 ; Internal perimeter
G1 X92.272 Y90.438 E0.07421 ; Internal perimeter
G1 X90.825 Y91.906 E0.07421 ; Internal perimeter
G1 X89.293 Y93.286 E0.07421 ; Internal perimeter
G1 X87.682 Y94.571 E0.07421 ; Internal perimeter
G1 X85.996 Y95.757 E0.07421 ; Internal perimeter
G1 X84.242 Y96.841 E0.07421 ; Internal perimeter
G1 X82.427 Y97.818 E0.07421 ; Internal perimeter
G1 X80.557 Y98.684 E0.07421 ; Internal perimeter
G1 X78.638 Y99.438 E0.07421 ; Internal perimeter
G1 X76.677 Y100.075 E0.07421 ; Internal perimeter
