; generated by SuperSlicer 2.4 on 2022-08-17 at 22:51:40 UTC


;
;

;
;
; 

; external perimeters extrusion width = 0.42mm
; perimeters extrusion width = 0.40mm
; infill extrusion width = 0.45mm
; solid infill extrusion width = 0.45mm
; top infill extrusion width = 0.42mm
; first layer extrusion width = 0.40mm

; external perimeters extrusion width = 0.42mm
; perimeters extrusion width = 0.40mm
; infill extrusion width = 0.45mm
; solid infill extrusion width = 0.45mm
; top infill extrusion width = 0.42mm
; first layer extrusion width = 0.40mm

; external perimeters extrusion width = 0.42mm
; perimeters extrusion width = 0.40mm
; infill extrusion width = 0.45mm
; solid infill extrusion width = 0.45mm
; top infill extrusion width = 0.42mm
; first layer extrusion width = 0.40mm

; external perimeters extrusion width = 0.42mm
; perimeters extrusion width = 0.40mm
; infill extrusion width = 0.45mm
; solid infill extrusion width = 0.45mm
; top infill extrusion width = 0.42mm
; first layer extrusion width = 0.40mm

; object:{"name":"brown","id":"brown.stl id:0 copy 0","object_center":[67.007832,67.003580,0.000000],"boundingbox_center":[67.007832,67.003580,1.500000],"boundingbox_size":[69.984337,69.992165,3.000000]}
; object:{"name":"red","id":"red.stl id:1 copy 0","object_center":[142.992168,67.003580,0.000000],"boundingbox_center":[142.992168,67.003580,1.500000],"boundingbox_size":[69.984337,69.992165,3.000000]}
; object:{"name":"brown","id":"brown.stl id:2 copy 0","object_center":[67.007832,142.996420,0.000000],"boundingbox_center":[67.007832,142.996420,1.500000],"boundingbox_size":[69.984337,69.992165,3.000000]}
; object:{"name":"red","id":"red.stl id:3 copy 0","object_center":[142.992168,142.996420,0.000000],"boundingbox_center":[142.992168,142.996420,1.500000],"boundingbox_size":[69.984337,69.992165,3.000000]}
; Total objects to print: 4
M486 T4
; plater:{"center":[105.000000,105.000000,0.000000],"boundingbox_center":[105.000000,105.000000,1.500000],"boundingbox_size":[145.968673,145.985005,3.000000]}

M73 P0 R131
;TYPE:Custom
; custom gcode: start_gcode
G90 ; use absolute coordinates
M83 ; extruder relative mode
M204 S1250 T1250
M104 S200 ; set extruder temp
M140 S65 ; set bed temp
G28 ; home all
G1 Y1.0 Z 3F1000 ; move print head up
M190 S65 ; wait for bed temp
M109 S200 ; wait for extruder temp
G92 E0.0
; initial load
G1 Z0.5 E19 F1000
M73 P0 R130
G1 X205.0 E19 F1000
G1 Y1.6
G1 X5.0 E19 F1000
G92 E0.0
; intro line
G1 Y2.0 Z0.2 F1000
G1 X65.0 E9.0 F1000
G1 X105.0 E12.5 F1000
G92 E0.0
; custom gcode end: start_gcode
M107 ; disable fan
G21 ; set units to millimeters
G90 ; use absolute coordinates
M83 ; use relative distances for extrusion
; custom gcode: start_filament_gcode
; Filament gcode
; custom gcode end: start_filament_gcode
;_TOOLCHANGE 0
M107 ; disable fan
;LAYER_CHANGE
;Z:0.25
;HEIGHT:0.25
; custom gcode: before_layer_gcode
;BEFORE_LAYER_CHANGE
G92 E0.0
;0.25
; custom gcode end: before_layer_gcode

G1 E-6 F6000 ; retract
G1 Z0.2 F10800 ; lift Z
G1 Z0.25 ; move to next layer (0)
; custom gcode: layer_gcode
;AFTER_LAYER_CHANGE
;0.25
; custom gcode end: layer_gcode

G1 Z0.45 ; lift Z
M204 S1000 ; adjust acceleration
G1 X41.059 Y40.304 ; move to first Skirt point (minimum acceleration)
G1 Z0.25 ; restore layer Z
G1 E6 F2400 ; unretract
;TYPE:Skirt
;WIDTH:0.52
G1 F1200
G1 X39.661 Y41.728 E0.09671 ; Skirt
G1 X38.199 Y43.408 E0.10798 ; Skirt
G1 X36.839 Y45.173 E0.10798 ; Skirt
G1 X35.66 Y46.903 E0.1015 ; Skirt
G1 X34.514 Y48.814 E0.10798 ; Skirt
G1 X33.484 Y50.789 E0.10798 ; Skirt
G1 X32.574 Y52.822 E0.10798 ; Skirt
G1 X31.745 Y55.033 E0.11445 ; Skirt
G1 X31.092 Y57.163 E0.10798 ; Skirt
G1 X30.568 Y59.328 E0.10798 ; Skirt
G1 X30.194 Y61.388 E0.1015 ; Skirt
G1 X29.924 Y63.6 E0.10798 ; Skirt
G1 X29.786 Y65.823 E0.10798 ; Skirt
G1 X29.782 Y144.043 E3.79146 ; Skirt
G1 X29.912 Y146.267 E0.10798 ; Skirt
G1 X30.174 Y148.48 E0.10798 ; Skirt
G1 X30.568 Y150.672 E0.10798 ; Skirt
G1 X31.092 Y152.837 E0.10798 ; Skirt
G1 X31.745 Y154.967 E0.10798 ; Skirt
G1 X32.524 Y157.054 E0.10798 ; Skirt
G1 X33.426 Y159.091 E0.10798 ; Skirt
G1 X34.514 Y161.186 E0.11445 ; Skirt
G1 X35.66 Y163.097 E0.10798 ; Skirt
G1 X36.839 Y164.827 E0.1015 ; Skirt
G1 X38.199 Y166.592 E0.10798 ; Skirt
G1 X39.661 Y168.272 E0.10798 ; Skirt
G1 X41.222 Y169.861 E0.10798 ; Skirt
G1 X42.875 Y171.355 E0.10798 ; Skirt
G1 X44.614 Y172.747 E0.10798 ; Skirt
G1 X46.433 Y174.033 E0.10798 ; Skirt
G1 X48.326 Y175.207 E0.10798 ; Skirt
G1 X50.405 Y176.326 E0.11445 ; Skirt
G1 X52.428 Y177.259 E0.10798 ; Skirt
G1 X54.503 Y178.069 E0.10798 ; Skirt
G1 X56.623 Y178.753 E0.10798 ; Skirt
G1 X58.78 Y179.31 E0.10798 ; Skirt
G1 X60.967 Y179.737 E0.10798 ; Skirt
G1 X63.042 Y180.018 E0.1015 ; Skirt
G1 X65.263 Y180.188 E0.10798 ; Skirt
G1 X143.508 Y180.226 E3.79265 ; Skirt
G1 X145.833 Y180.119 E0.11283 ; Skirt
G1 X147.916 Y179.901 E0.1015 ; Skirt
G1 X150.114 Y179.54 E0.10798 ; Skirt
G1 X152.287 Y179.048 E0.10798 ; Skirt
G1 X154.426 Y178.427 E0.10798 ; Skirt
G1 X156.525 Y177.679 E0.10798 ; Skirt
G1 X158.575 Y176.807 E0.10798 ; Skirt
G1 X160.569 Y175.815 E0.10798 ; Skirt
G1 X162.5 Y174.704 E0.10798 ; Skirt
G1 X164.361 Y173.48 E0.10798 ; Skirt
G1 X166.146 Y172.147 E0.10798 ; Skirt
G1 X167.848 Y170.71 E0.10798 ; Skirt
G1 X169.461 Y169.173 E0.10798 ; Skirt
G1 X170.979 Y167.543 E0.10798 ; Skirt
G1 X172.397 Y165.825 E0.10798 ; Skirt
G1 X173.785 Y163.915 E0.11445 ; Skirt
G1 X174.981 Y162.035 E0.10798 ; Skirt
G1 X176 Y160.206 E0.1015 ; Skirt
G1 X176.97 Y158.201 E0.10798 ; Skirt
G1 X177.819 Y156.141 E0.10798 ; Skirt
G1 X178.543 Y154.035 E0.10798 ; Skirt
G1 X179.139 Y151.888 E0.10798 ; Skirt
G1 X179.606 Y149.71 E0.10798 ; Skirt
G1 X179.942 Y147.508 E0.10798 ; Skirt
G1 X180.154 Y145.156 E0.11445 ; Skirt
G1 X180.218 Y142.996 E0.10474 ; Skirt
M73 P0 R129
G1 X180.218 Y67.004 E3.68348 ; Skirt
G1 X180.154 Y64.844 E0.10474 ; Skirt
G1 X179.958 Y62.625 E0.10798 ; Skirt
G1 X179.63 Y60.421 E0.10798 ; Skirt
G1 X179.171 Y58.241 E0.10798 ; Skirt
G1 X178.543 Y55.965 E0.11445 ; Skirt
G1 X177.819 Y53.859 E0.10798 ; Skirt
G1 X177.025 Y51.921 E0.1015 ; Skirt
G1 X176 Y49.794 E0.11445 ; Skirt
G1 X174.912 Y47.85 E0.10798 ; Skirt
G1 X173.709 Y45.975 E0.10798 ; Skirt
G1 X172.479 Y44.281 E0.1015 ; Skirt
G1 X171.067 Y42.557 E0.10798 ; Skirt
G1 X169.461 Y40.827 E0.11445 ; Skirt
G1 X167.848 Y39.29 E0.10798 ; Skirt
G1 X166.25 Y37.936 E0.1015 ; Skirt
G1 X164.47 Y36.597 E0.10798 ; Skirt
G1 X162.5 Y35.296 E0.11445 ; Skirt
G1 X160.569 Y34.185 E0.10798 ; Skirt
G1 X158.696 Y33.249 E0.1015 ; Skirt
G1 X156.525 Y32.321 E0.11445 ; Skirt
G1 X154.426 Y31.573 E0.10798 ; Skirt
G1 X152.416 Y30.986 E0.1015 ; Skirt
G1 X150.114 Y30.46 E0.11445 ; Skirt
G1 X147.916 Y30.099 E0.10798 ; Skirt
G1 X145.833 Y29.881 E0.1015 ; Skirt
G1 X143.608 Y29.777 E0.10798 ; Skirt
G1 X67.524 Y29.774 E3.68792 ; Skirt
G1 X65.263 Y29.812 E0.1096 ; Skirt
G1 X63.042 Y29.982 E0.10798 ; Skirt
G1 X60.967 Y30.263 E0.1015 ; Skirt
G1 X58.78 Y30.69 E0.10798 ; Skirt
G1 X56.623 Y31.247 E0.10798 ; Skirt
G1 X54.378 Y31.976 E0.11445 ; Skirt
G1 X52.428 Y32.741 E0.1015 ; Skirt
G1 X50.405 Y33.674 E0.10798 ; Skirt
G1 X48.442 Y34.726 E0.10798 ; Skirt
G1 X46.545 Y35.894 E0.10798 ; Skirt
G1 X44.614 Y37.253 E0.11445 ; Skirt
G1 X42.875 Y38.645 E0.10798 ; Skirt
G1 X41.222 Y40.139 E0.10798 ; Skirt
M73 P1 R129
G1 X41.101 Y40.262 E0.00836 ; Skirt
; printing object brown.stl id:0 copy 0
M486 S0
; acceleration to travel
M204 S1500 ; adjust acceleration
G1 X42.553 Y41.692 F10800 ; move to first Internal perimeter point (acceleration)
; decel to extrusion
M204 S800 ; adjust acceleration
G1 X43.328 Y42.455 ; move to first Internal perimeter point (deceleration)
; end travel
;TYPE:Internal perimeter
;WIDTH:0.4
G1 F1200
G1 X43.43 Y42.351 E0.00525 ; Internal perimeter
G1 X44.946 Y40.986 E0.07346 ; Internal perimeter
G1 X46.542 Y39.713 E0.07346 ; Internal perimeter
G1 X48.211 Y38.539 E0.07346 ; Internal perimeter
G1 X49.947 Y37.466 E0.07346 ; Internal perimeter
G1 X51.744 Y36.499 E0.07346 ; Internal perimeter
G1 X53.595 Y35.641 E0.07346 ; Internal perimeter
G1 X55.495 Y34.896 E0.07346 ; Internal perimeter
G1 X57.435 Y34.265 E0.07346 ; Internal perimeter
G1 X59.41 Y33.752 E0.07346 ; Internal perimeter
G1 X61.413 Y33.357 E0.07346 ; Internal perimeter
G1 X63.435 Y33.084 E0.07346 ; Internal perimeter
G1 X65.47 Y32.931 E0.07346 ; Internal perimeter
G1 X67.51 Y32.9 E0.07346 ; Internal perimeter
G1 X68.599 Y32.949 E0.03923 ; Internal perimeter
G1 X69.549 Y32.992 E0.03423 ; Internal perimeter
G1 X71.578 Y33.205 E0.07346 ; Internal perimeter
G1 X73.591 Y33.54 E0.07346 ; Internal perimeter
G1 X75.581 Y33.994 E0.07346 ; Internal perimeter
G1 X77.54 Y34.566 E0.07346 ; Internal perimeter
G1 X79.461 Y35.254 E0.07346 ; Internal perimeter
G1 X81.337 Y36.056 E0.07346 ; Internal perimeter
G1 X83.162 Y36.969 E0.07346 ; Internal perimeter
G1 X84.929 Y37.99 E0.07346 ; Internal perimeter
G1 X86.633 Y39.114 E0.07346 ; Internal perimeter
G1 X88.265 Y40.338 E0.07346 ; Internal perimeter
G1 X89.822 Y41.657 E0.07346 ; Internal perimeter
G1 X91.297 Y43.067 E0.07346 ; Internal perimeter
G1 X92.685 Y44.563 E0.07346 ; Internal perimeter
G1 X93.981 Y46.14 E0.07346 ; Internal perimeter
G1 X95.18 Y47.79 E0.07346 ; Internal perimeter
G1 X96.279 Y49.51 E0.07346 ; Internal perimeter
G1 X97.273 Y51.292 E0.07346 ; Internal perimeter
G1 X98.158 Y53.131 E0.07346 ; Internal perimeter
G1 X98.932 Y55.019 E0.07346 ; Internal perimeter
G1 X99.592 Y56.95 E0.07346 ; Internal perimeter
G1 X100.135 Y58.917 E0.07346 ; Internal perimeter
G1 X100.559 Y60.914 E0.07346 ; Internal perimeter
G1 X100.863 Y62.931 E0.07346 ; Internal perimeter
G1 X101.046 Y64.964 E0.07346 ; Internal perimeter
G1 X101.107 Y67.004 E0.07346 ; Internal perimeter
G1 X101.046 Y69.043 E0.07346 ; Internal perimeter
G1 X100.863 Y71.076 E0.07346 ; Internal perimeter
G1 X100.559 Y73.094 E0.07346 ; Internal perimeter
G1 X100.135 Y75.09 E0.07346 ; Internal perimeter
G1 X99.592 Y77.057 E0.07346 ; Internal perimeter
G1 X98.932 Y78.988 E0.07346 ; Internal perimeter
G1 X98.158 Y80.876 E0.07346 ; Internal perimeter
G1 X97.273 Y82.715 E0.07346 ; Internal perimeter
G1 X96.279 Y84.497 E0.07346 ; Internal perimeter
G1 X95.18 Y86.217 E0.07346 ; Internal perimeter
G1 X93.981 Y87.868 E0.07346 ; Internal perimeter
G1 X92.685 Y89.444 E0.07346 ; Internal perimeter
G1 X91.297 Y90.94 E0.07346 ; Internal perimeter
G1 X89.822 Y92.35 E0.07346 ; Internal perimeter
G1 X88.265 Y93.669 E0.07346 ; Internal perimeter
G1 X86.633 Y94.893 E0.07346 ; Internal perimeter
G1 X84.929 Y96.018 E0.07346 ; Internal perimeter
G1 X83.162 Y97.038 E0.07346 ; Internal perimeter
G1 X81.337 Y97.951 E0.07346 ; Internal perimeter
G1 X79.461 Y98.753 E0.07346 ; Internal perimeter
G1 X77.54 Y99.441 E0.07346 ; Internal perimeter
G1 X75.581 Y100.013 E0.07346 ; Internal perimeter
G1 X73.591 Y100.468 E0.07346 ; Internal perimeter
G1 X71.578 Y100.802 E0.07346 ; Internal perimeter
G1 X69.549 Y101.015 E0.07346 ; Internal perimeter
G1 X67.51 Y101.107 E0.07346 ; Internal perimeter
G1 X65.47 Y101.076 E0.07346 ; Internal perimeter
G1 X63.435 Y100.924 E0.07346 ; Internal perimeter
G1 X61.413 Y100.65 E0.07346 ; Internal perimeter
G1 X59.41 Y100.255 E0.07346 ; Internal perimeter
G1 X57.435 Y99.742 E0.07346 ; Internal perimeter
G1 X55.495 Y99.111 E0.07346 ; Internal perimeter
G1 X53.595 Y98.366 E0.07346 ; Internal perimeter
G1 X51.744 Y97.508 E0.07346 ; Internal perimeter
G1 X49.947 Y96.541 E0.07346 ; Internal perimeter
G1 X48.211 Y95.468 E0.07346 ; Internal perimeter
G1 X46.542 Y94.294 E0.07346 ; Internal perimeter
G1 X44.946 Y93.021 E0.07346 ; Internal perimeter
G1 X43.43 Y91.656 E0.07346 ; Internal perimeter
G1 X41.998 Y90.202 E0.07346 ; Internal perimeter
G1 X40.655 Y88.665 E0.07346 ; Internal perimeter
G1 X39.407 Y87.051 E0.07346 ; Internal perimeter
G1 X38.257 Y85.365 E0.07346 ; Internal perimeter
G1 X37.211 Y83.613 E0.07346 ; Internal perimeter
G1 X36.271 Y81.802 E0.07346 ; Internal perimeter
G1 X35.441 Y79.938 E0.07346 ; Internal perimeter
G1 X34.724 Y78.027 E0.07346 ; Internal perimeter
G1 X34.122 Y76.077 E0.07346 ; Internal perimeter
G1 X33.638 Y74.095 E0.07346 ; Internal perimeter
G1 X33.274 Y72.087 E0.07346 ; Internal perimeter
G1 X33.03 Y70.061 E0.07346 ; Internal perimeter
G1 X32.908 Y68.024 E0.07346 ; Internal perimeter
G1 X32.908 Y65.983 E0.07346 ; Internal perimeter
G1 X33.03 Y63.946 E0.07346 ; Internal perimeter
G1 X33.274 Y61.92 E0.07346 ; Internal perimeter
G1 X33.638 Y59.912 E0.07346 ; Internal perimeter
G1 X34.122 Y57.93 E0.07346 ; Internal perimeter
G1 X34.724 Y55.98 E0.07346 ; Internal perimeter
G1 X35.441 Y54.069 E0.07346 ; Internal perimeter
G1 X36.271 Y52.205 E0.07346 ; Internal perimeter
G1 X37.211 Y50.394 E0.07346 ; Internal perimeter
G1 X38.257 Y48.642 E0.07346 ; Internal perimeter
G1 X39.407 Y46.956 E0.07346 ; Internal perimeter
G1 X40.655 Y45.342 E0.07346 ; Internal perimeter
G1 X41.998 Y43.805 E0.07346 ; Internal perimeter
G1 X43.286 Y42.498 E0.06605 ; Internal perimeter
G1 X43.081 Y42.212 F10800 ; move to first Internal perimeter point (minimum acceleration)
G1 F1200
G1 X43.191 Y42.101 E0.00562 ; Internal perimeter
G1 X44.722 Y40.722 E0.07421 ; Internal perimeter
G1 X46.334 Y39.436 E0.07421 ; Internal perimeter
G1 X48.02 Y38.25 E0.07421 ; Internal perimeter
G1 X49.773 Y37.166 E0.07421 ; Internal perimeter
G1 X51.589 Y36.189 E0.07421 ; Internal perimeter
G1 X53.459 Y35.323 E0.07421 ; Internal perimeter
G1 X55.378 Y34.57 E0.07421 ; Internal perimeter
G1 X57.338 Y33.933 E0.07421 ; Internal perimeter
G1 X59.333 Y33.414 E0.07421 ; Internal perimeter
G1 X61.356 Y33.016 E0.07421 ; Internal perimeter
G1 X63.399 Y32.739 E0.07421 ; Internal perimeter
G1 X65.454 Y32.585 E0.07421 ; Internal perimeter
G1 X67.515 Y32.554 E0.07421 ; Internal perimeter
G1 X68.614 Y32.603 E0.0396 ; Internal perimeter
G1 X69.575 Y32.647 E0.03461 ; Internal perimeter
G1 X71.625 Y32.862 E0.07421 ; Internal perimeter
G1 X73.658 Y33.2 E0.07421 ; Internal perimeter
G1 X75.668 Y33.658 E0.07421 ; Internal perimeter
G1 X77.647 Y34.236 E0.07421 ; Internal perimeter
G1 X79.587 Y34.932 E0.07421 ; Internal perimeter
G1 X81.483 Y35.742 E0.07421 ; Internal perimeter
G1 X83.326 Y36.664 E0.07421 ; Internal perimeter
G1 X85.112 Y37.695 E0.07421 ; Internal perimeter
G1 X86.832 Y38.83 E0.07421 ; Internal perimeter
G1 X88.481 Y40.067 E0.07421 ; Internal perimeter
G1 X90.054 Y41.4 E0.07421 ; Internal perimeter
G1 X91.544 Y42.824 E0.07421 ; Internal perimeter
G1 X92.946 Y44.335 E0.07421 ; Internal perimeter
G1 X94.255 Y45.928 E0.07421 ; Internal perimeter
G1 X95.467 Y47.595 E0.07421 ; Internal perimeter
G1 X96.576 Y49.332 E0.07421 ; Internal perimeter
G1 X97.58 Y51.133 E0.07421 ; Internal perimeter
G1 X98.475 Y52.99 E0.07421 ; Internal perimeter
G1 X99.256 Y54.898 E0.07421 ; Internal perimeter
G1 X99.923 Y56.848 E0.07421 ; Internal perimeter
G1 X100.471 Y58.835 E0.07421 ; Internal perimeter
G1 X100.9 Y60.852 E0.07421 ; Internal perimeter
G1 X101.207 Y62.89 E0.07421 ; Internal perimeter
G1 X101.392 Y64.943 E0.07421 ; Internal perimeter
G1 X101.453 Y67.004 E0.07421 ; Internal perimeter
G1 X101.392 Y69.064 E0.07421 ; Internal perimeter
G1 X101.207 Y71.117 E0.07421 ; Internal perimeter
G1 X100.9 Y73.155 E0.07421 ; Internal perimeter
G1 X100.471 Y75.172 E0.07421 ; Internal perimeter
G1 X99.923 Y77.159 E0.07421 ; Internal perimeter
G1 X99.256 Y79.11 E0.07421 ; Internal perimeter
G1 X98.475 Y81.017 E0.07421 ; Internal perimeter
G1 X97.58 Y82.874 E0.07421 ; Internal perimeter
G1 X96.576 Y84.675 E0.07421 ; Internal perimeter
G1 X95.467 Y86.412 E0.07421 ; Internal perimeter
G1 X94.255 Y88.08 E0.07421 ; Internal perimeter
G1 X92.946 Y89.672 E0.07421 ; Internal perimeter
G1 X91.544 Y91.183 E0.07421 ; Internal perimeter
G1 X90.054 Y92.607 E0.07421 ; Internal perimeter
G1 X88.481 Y93.94 E0.07421 ; Internal perimeter
G1 X86.832 Y95.177 E0.07421 ; Internal perimeter
G1 X85.112 Y96.312 E0.07421 ; Internal perimeter
G1 X83.326 Y97.343 E0.07421 ; Internal perimeter
G1 X81.483 Y98.265 E0.07421 ; Internal perimeter
G1 X79.587 Y99.075 E0.07421 ; Internal perimeter
